X:1
T:Se d'altro mai
T:Se d'altro mai
T:Giovanni de Macque
T:Source: Melodia Olympica---Anvers---P.Phalesio & G.Bellero---1591. Editor : André Vierendeels (12/01/14).
C:Giovanni de Macque
%%score [ 1 [ 2 3 ] 4 ]
L:1/8
Q:1/4=86
M:4/4
K:F
V:1 treble nm="Canto" snm="C"
V:2 treble-8 nm="Tenor 1" snm="T 1"
V:3 treble-8 nm="Tenor 2" snm="T 2"
V:4 bass nm="Basso" snm="B"
V:1
 z8 | z4 G4 | B2 B2 A2 F2 | A4 G4 | z4 d4 | c2 A2 c2 c2 | B3 c d4- | d4 G4- | G2 B2 A2 F2 | %9
w: |Se|d'al- tro mai non|vi- vo,|se|d'al- tro mai non|vi- * *|* vo,|_ che del vo-|
 G2 A2 B4 | d4 c4- | c4 B4 | A8 | A4 A4 | =B4 c4 | A4 G4 | F6 E2 | D2 C2 D4 | D6 G2 | G2 G2 B4 | %20
w: stro so- a-|v'e dol-|* ce|sguar-|do, e'in-|sie- me'in-|sie- me|mi nu-|dris- co'et ar-|do, com'|hor da voi|
 c2 B4 A2 | z4 A4 | c2 B2 A2 A2 | G4 A2 E2 | ^F4 GA Bc | d2 G2 cB AG | F2 E2 z2 G2- | G2 D2 G4- | %28
w: son pri- vo,|et|an- cor non son|spen- to, ma|spi- ro, _ _ _|_ ma spi- * * *|* ro par-|* lo'e sen-|
 G4 ^F4 | z4 G4 |: G4 G4 | A8 | =B2 c4 B2 | A2 G2 A4 | A4 A4 | F2 B2 A2 G2 | F4 A4 | B2 c2 d2 A2 | %38
w: * to,|se|non e|for-|si sol que-|sta mia spe-|ne, di|ri- ve der- vi'an-|cor che|mi man- tie- ne,|
 z4 A4 | F2 B2 A2 G2 | F4 D4 | F2 G2 A4- | A2 G4 ^F2 |1 G4 G4 :|2 A2 G4 ^F2 || G8 |] %46
w: di|ri- ve der- vi'an-|cor che|mi man- tie-||ne, se|(tie)- * *|ne.|
V:2
 d4 f2 f2 | e2 c2 e3 f | g4 c2 d2 | c2 A2 c2 c2 | B4 A2 a2 | g2 e2 g4- | g2 g2 f4 | f2 f2 e2 c2 | %8
w: Se d'al- tro|mai non vi- *|* vo, se|d'al- tro mai non|vi- vo, se|d'al- tro mai|_ non vi-|vo, che del vo-|
 d2 e2 f4 | e4 z2 d2 | f2 g2 a4- | a4 g2 f2 | e8 | ^f4 f4 | g4 g4 | f4 e4 | c6 c2 | A2 G2 A4 | %18
w: stro so- a-|ve e|dol- ce sguar-|||do, e'in|sie- me'in-|sie- me|mi nu-|dris- co'et ar-|
 =B8 | d4 d2 d2 | f2 e2 c4 | d8 | z2 d2 f2 e2 | d2 d2 ^c4 | d4 z2 d2 | gf ed e2 f2 | c3 c _e4 | %27
w: do,|com' hor da|voi son pri-|vo,|et an- cor|non son spen-|to, ma|spi- * * * * ro|par- lo'e sen-|
 d8- | d8 | z4 d4 |: d4 e4 | f4 f4 | g4 g4 | e2 d2 e4 | f4 f4 | d2 g2 f2 e2 | d4 d4 | f2 g2 a4 | %38
w: to,|_|se|non e|for- si|sol que-|sta mia spe-|ne, di|ri- ve der- vi'an-|cor che|mi man- tie-|
 d4 f4 | d2 f2 e2 e2 | d2 d2 f2 g2 | a2 d4 f2 | f2 d2 d4 |1 d4 d4 :|2 f2 d2 d4 || d8 |] %46
w: me, di|ri- ve der- vi'an-|cor che mi man-|tie- ne, che|mi man- tie-|ne, se|mi man- tie-|ne.|
V:3
 z4 d4 | c2 A2 c2 c2 | d4 A4 | z8 | d4 f2 f2 | e2 c2 _e4- | e2 B4 B2 | A2 F2 G2 A2 | B4 d4 | %9
w: Se|d'al- tro mai non|vi- vo,||se d'al- tro|mai non vi-|* vo, che|del vo- stro so-|a- v'e|
 c4 B4 | A6 B2 | c2 A2 d4- | d2 ^cB c4 | d4 d4 | d4 c4 | c4 c4 | A6 G2 | ^F2 G2 F4 | G2 G2 G2 G2 | %19
w: dol- ce|sguar- *|||do, e'in|sie- me'in-|sie- me|mi nu-|dris- co'et ar-|do, com' hor da|
"^b" B4 G4 | F4 F2 F2 | D2 E2 F4- | F2 G2 AB cA | B4 A4- | A2 A2 dc BA | G6 D2 | A4 G4 | B8 | A8 | %29
w: voi son|pri- vo, et|an- cor non|_ son spen- * * *|* do,|_ ma spi- * * *|* ro|par- lo'e|sen-|to,|
 z4 =B4 |: =B2 B2 c2 c2 | c4 d4- | d2 e4 d2 | ^c2 d4 c2 | d8 | z8 | z4 F4 | D2 G2 F2 E2 | F4 c4 | %39
w: se|non e for- si|sol que-|* sta mia|spe- * *|ne,||di|ri- ve der- vi'an-|cor che|
 B2 d2 c4 | A2 A2 F2 B2 | A2 G2 F2 D2 | F2 G2 A4 |1 G4 =B4 :|2 F2 G2 A4 || G8 |] %46
w: mi man- tie-|me, che mi man-|tie- * ne, che|mi man- tie-|ne, se|mi- tie- *|ne|
V:4
 z8 | z8 | G,4 F,2 D,2 | F,2 F,2 E,3 F, | G,4 D,4 | z4 C,4 | _E,2 E,2 D,2 B,,2 | D,4 C,4 | %8
w: ||Se d'al- tro|mai non vi- *|* vo,|se|d'al- tro mai non|vi- vo,|
 G,4 F,2 D,2 | E,2 F,2 G,4 | D,4 F,4- | F,4 G,4 | A,8 | D,4 D,4 | G,4 E,4 | F,4 C,4 | F,6 C,2 | %17
w: che del vo-|stro so- a-|v'e dol-|* ce|sguar-|do, e'in|sie- me'in-|sie- me|mi nu-|
 D,2 _E,2 D,4 | G,,8- | G,,8 | z8 | z8 | z8 | z4 z2 A,,2 | D,3 C, B,,A,, G,,2- | G,,2 C,4 F,2- | %26
w: dris- co'et ar-|do,|_||||ma|spi- * * * *|* ro par-|
 F,2 C,2 z2 C,2 | G,8 | D,8 | z4 G,4 |: G,4 C,4 | F,4 D,4 | G,4 G,4 | A,2 B,2 A,4 | D,8 | z8 | %36
w: lo _ e|sen-|to,|se|non for-|si sol|que- sta|mia spe- *|ne,||
 z4 D,4 | B,,2 _E,2 D,2 C,2 | B,,4 A,,4 | B,,4 C,4 | D,8- | D,8 | D,8 |1 z4 G,4 :|2 D,8 || G,,8 |] %46
w: di|ri- ve der- vi'an-|cor che|mi man-|tie-||ne||(tie)-|ne.|

